X:28
T:Paddy Reynolds'
S:Trad, arr. Paddy O'Brien 
Z:Set Paddy Reynold's/Jer Quigley's/Hunters' House
R:reel
E:9
I:speed 350
M:C|
K:G
F2|DGGF GABd|~g2 dg egdB|~A2 ^GB AcBA|GBAF GFEF|\
DG~G2 DGBd|~g2dg egdB|GABd gedc|BcAF G2:|\
Bc|dggf gGBd|gbaf gfed|eaag abag|eaag edBc|\
dggf gGBd| gbaf gedB|GABd gedc|BcAF G2:|**

